X:1
T:Vander Werp, LMD
T:Henry Vander Werp, 1911
T:Vander Werp, LMD
T:Public Domain
C:Henry Vander Werp, 1911
Z:Public Domain
%%score ( 1 2 ) ( 3 4 )
L:1/8
M:4/4
K:Eb
V:1 treble 
V:2 treble 
V:3 bass 
V:4 bass 
V:1
 [EB]2 | [EB]3 [Ec] [EB]2 [Ge]2 | ([EB][DA])(GF) E2 [EG]2 | [DF]2 [DB]2 [FB]2 [Gc]2 | %4
 [Fd]3 [Ec] [DB]2 [AB]2 | [Ge]2 [EB]2 [Ec]2 [EB]2 | [EG]3 [DF] E2 [EB]2 | [Ec]2 [Fd]2 [Ge]2 [Ff]2 | %8
 [Ge]4 (F2 A2) | [Ge]4 z2 [EG]2 | [EG]3 [DF] [DF]2 [FA]2 | [FA]3 [EG] [EG]2 [EB]2 | %12
 [EB]3 [E=A] [EA]2 [Ec]2 | [Ec]3 [DB] [DB]2 [AB]2 | [Ge]2 [EB]2 [Ec]2 [EB]2 | [EG]3 [DF] E2 [EB]2 | %16
 [Ec]2 [Fd]2 [Ge]2 [Ff]2 | [Ge]4 (F2 A2) | [Ge]6 z2 |] %19
V:2
 x2 | x8 | x2 D2 E2 x2 | x8 | x8 | x8 | x4 E2 x2 | x8 | x4 d4 | x8 | x8 | x8 | x8 | x8 | x8 | %15
 x4 E2 x2 | x8 | x4 d4 | x8 |] %19
V:3
 [E,G,]2 | [E,G,]3 [E,A,] [E,G,]2 [E,B,]2 | (G,F,) [B,,A,]2 [E,G,]2 [E,B,]2 | %3
 [B,,B,]2 [B,,B,]2 [D,B,]2 [E,B,]2 | [F,B,]3 [F,=A,] [B,,F,]2 [B,,B,]2 | %5
 [E,B,]2 [E,G,]2 [A,,A,]2 [B,,G,]2 | [B,,B,]3 [B,,A,] [E,G,]2 [E,G,]2 | %7
 [A,,A,]2 [A,,A,]2 [G,,B,]2 [A,,C]2 | [B,,B,]4 [B,,B,]4 | [E,B,]4 z2 [E,B,]2 | %10
 [E,B,]3 [B,,B,] [B,,B,]2 [D,B,]2 | [E,B,]3 [E,B,] [E,B,]2 [G,B,]2 | [F,C]3 [F,C] [F,C]2 [F,=A,]2 | %13
 [B,,F,]3 [B,,F,] [B,,F,]2 [B,,B,]2 | [E,B,]2 [E,G,]2 [A,,A,]2 [B,,G,]2 | %15
 [B,,B,]3 [B,,A,] [E,G,]2 [E,G,]2 | [A,,A,]2 [A,,A,]2 [G,,B,]2 [A,,C]2 | [B,,B,]4 [B,,B,]4 | %18
 [E,B,]6 z2 |] %19
V:4
 x2 | x8 | B,,2 x6 | x8 | x8 | x8 | x8 | x8 | x8 | x8 | x8 | x8 | x8 | x8 | x8 | x8 | x8 | x8 | %18
 x8 |] %19

